X:64
T:Hunter's Purse, The
M:C|
R:reel
K:Em
EAAB AGEF | G2GA GED2 | cBcd eged | ^cdef gedB |
A2AB AGEF | G2GA GED2 | cBcd eged | cABG A2AG :|
|: eaab agef | g2ga ged2 | cBcd eged | ^cdef gdeg | 
a2ab agef | g2ga ged2 | cBcd eged | cABG A2 A2 |:
%%newpage

